;FLAVOR:Marlin
;TIME:9303
;Filament used: 7.98227m
;Layer height: 0.16
;MINX:61.346
;MINY:31.274
;MINZ:0.2
;MAXX:158.046
;MAXY:127.974
;MAXZ:20.2
;Generated with Creality Slicer 4.8.2-254
M140 S60
M105
M190 S60
M104 S200
M105
M109 S200
M82 ;absolute extrusion mode

G28 ;Home

G92 E0 ;Reset Extruder
G1 Z2.0 F3000 ;Move Z Axis up
G1 X10.1 Y20 Z0.28 F5000.0 ;Move to start position
G1 X10.1 Y200.0 Z0.28 F1500.0 E15 ;Draw the first line
G1 X10.4 Y200.0 Z0.28 F5000.0 ;Move to side a little
G1 X10.4 Y20 Z0.28 F1500.0 E30 ;Draw the second line
G92 E0 ;Reset Extruder
G1 Z2.0 F3000 ;Move Z Axis up

G92 E0
G92 E0
G1 F2400 E-0.8
;LAYER_COUNT:102
;LAYER:0
M107
G0 F6000 X64.291 Y56.677 Z0.2
;TYPE:SKIRT
G1 F2400 E0
G1 F1200 X64.432 Y56.525 E0.0069
G1 X64.634 Y56.313 E0.01664
G1 X64.9 Y56.043 E0.02924
G1 X86.096 Y34.848 E1.02621
G1 X86.583 Y34.377 E1.04875
G1 X87.284 Y33.754 E1.07994
G1 X88.036 Y33.194 E1.11112
G1 X88.833 Y32.699 E1.14233
G1 X89.669 Y32.274 E1.17352
G1 X90.538 Y31.922 E1.20471
G1 X91.434 Y31.645 E1.2359
G1 X92.351 Y31.446 E1.26711
G1 X93.281 Y31.325 E1.2983
G1 X93.859 Y31.29 E1.31756
G1 X94.244 Y31.28 E1.33037
G1 X94.787 Y31.274 E1.34843
G1 X124.459 Y31.274 E2.33533
G1 X125.318 Y31.285 E2.3639
G1 X126.254 Y31.338 E2.39508
G1 X127.182 Y31.471 E2.42626
G1 X128.096 Y31.683 E2.45747
G1 X128.989 Y31.971 E2.48867
G1 X129.853 Y32.335 E2.51986
G1 X130.684 Y32.771 E2.55107
G1 X131.474 Y33.276 E2.58226
G1 X132.218 Y33.846 E2.61343
G1 X132.653 Y34.23 E2.63273
G1 X132.974 Y34.533 E2.64741
G1 X133.32 Y34.872 E2.66352
G1 X154.409 Y55.961 E3.65548
G1 X154.925 Y56.492 E3.68011
G1 X155.549 Y57.192 E3.7113
G1 X156.112 Y57.942 E3.74249
G1 X156.608 Y58.738 E3.77368
G1 X157.035 Y59.573 E3.80488
G1 X157.389 Y60.442 E3.83609
G1 X157.668 Y61.337 E3.86727
G1 X157.87 Y62.253 E3.89846
G1 X157.993 Y63.183 E3.92967
G1 X158.027 Y63.712 E3.9473
G1 X158.033 Y63.86 E3.95222
G1 X158.041 Y64.198 E3.96347
G1 X158.046 Y64.714 E3.98063
G1 X158.045 Y94.545 E4.97281
G1 X158.035 Y95.247 E4.99617
G1 X157.982 Y96.183 E5.02735
G1 X157.849 Y97.111 E5.05853
G1 X157.637 Y98.025 E5.08973
G1 X157.349 Y98.918 E5.12094
G1 X156.985 Y99.782 E5.15213
G1 X156.549 Y100.613 E5.18334
G1 X156.044 Y101.403 E5.21452
G1 X155.474 Y102.147 E5.2457
G1 X155.09 Y102.582 E5.26499
G1 X154.783 Y102.907 E5.27986
G1 X154.436 Y103.261 E5.29635
G1 X133.357 Y124.338 E6.2878
G1 X132.813 Y124.865 E6.31299
G1 X132.112 Y125.488 E6.34418
G1 X131.361 Y126.049 E6.37536
G1 X130.564 Y126.544 E6.40656
G1 X129.728 Y126.97 E6.43777
G1 X128.859 Y127.323 E6.46897
G1 X127.964 Y127.6 E6.50013
G1 X127.047 Y127.801 E6.53135
G1 X126.117 Y127.922 E6.56254
G1 X125.53 Y127.958 E6.5821
G1 X125.145 Y127.968 E6.59491
G1 X124.602 Y127.974 E6.61298
G1 X94.775 Y127.973 E7.60503
G1 X94.073 Y127.963 E7.62838
G1 X93.137 Y127.91 E7.65956
G1 X92.209 Y127.777 E7.69074
G1 X91.295 Y127.565 E7.72195
G1 X90.402 Y127.277 E7.75315
G1 X89.538 Y126.913 E7.78434
G1 X88.707 Y126.477 E7.81555
G1 X87.917 Y125.972 E7.84673
G1 X87.173 Y125.402 E7.87791
G1 X86.749 Y125.029 E7.89669
G1 X86.597 Y124.888 E7.90359
G1 X86.381 Y124.681 E7.91354
G1 X86.105 Y124.41 E7.9264
G1 X64.92 Y103.224 E8.9229
G1 X64.449 Y102.737 E8.94544
G1 X63.826 Y102.036 E8.97663
G1 X63.266 Y101.284 E9.00781
G1 X62.771 Y100.487 E9.03902
G1 X62.346 Y99.651 E9.07021
G1 X61.994 Y98.782 E9.10139
G1 X61.717 Y97.886 E9.13259
G1 X61.518 Y96.969 E9.1638
G1 X61.397 Y96.039 E9.19499
G1 X61.362 Y95.461 E9.21425
G1 X61.352 Y95.076 E9.22706
G1 X61.346 Y94.533 E9.24512
G1 X61.347 Y64.703 E10.23727
G1 X61.357 Y64.001 E10.26062
G1 X61.41 Y63.065 E10.2918
G1 X61.543 Y62.137 E10.32298
G1 X61.755 Y61.223 E10.35419
G1 X62.043 Y60.33 E10.3854
G1 X62.407 Y59.466 E10.41658
G1 X62.843 Y58.635 E10.44779
G1 X63.348 Y57.845 E10.47898
G1 X63.918 Y57.101 E10.51015
G1 X64.291 Y56.677 E10.52893
G0 F6000 X64.585 Y56.949
G1 F1200 X64.726 Y56.797 E10.53583
G1 X64.92 Y56.593 E10.54519
G1 X65.182 Y56.326 E10.55763
G1 X86.247 Y35.26 E11.54849
G1 X86.861 Y34.665 E11.57693
G1 X87.55 Y34.054 E11.60756
G1 X88.289 Y33.505 E11.63818
G1 X89.073 Y33.023 E11.66879
G1 X89.896 Y32.61 E11.69941
G1 X90.752 Y32.271 E11.73003
G1 X91.634 Y32.007 E11.76066
G1 X92.536 Y31.82 E11.79129
G1 X93.872 Y31.69 E11.83594
G1 X94.248 Y31.68 E11.84845
G1 X94.787 Y31.674 E11.86638
G1 X124.459 Y31.674 E12.85327
G1 X125.312 Y31.685 E12.88165
G1 X126.231 Y31.738 E12.91226
G1 X127.142 Y31.871 E12.94288
G1 X128.038 Y32.082 E12.9735
G1 X128.913 Y32.37 E13.00414
G1 X129.759 Y32.733 E13.03476
G1 X130.57 Y33.168 E13.06537
G1 X131.341 Y33.672 E13.096
G1 X132.381 Y34.523 E13.1407
G1 X132.51 Y34.643 E13.14656
G1 X132.694 Y34.819 E13.15503
G1 X133.037 Y35.154 E13.17097
G1 X154.122 Y56.24 E14.16277
G1 X154.638 Y56.771 E14.1874
G1 X155.25 Y57.458 E14.218
G1 X155.801 Y58.196 E14.24863
G1 X156.285 Y58.979 E14.27925
G1 X156.699 Y59.801 E14.30986
G1 X157.041 Y60.656 E14.34049
G1 X157.307 Y61.538 E14.37113
G1 X157.496 Y62.439 E14.40175
G1 X157.627 Y63.729 E14.44487
G1 X157.633 Y63.877 E14.4498
G1 X157.641 Y64.202 E14.46061
G1 X157.646 Y64.714 E14.47764
G1 X157.645 Y94.539 E15.46963
G1 X157.635 Y95.241 E15.49298
G1 X157.582 Y96.16 E15.5236
G1 X157.449 Y97.071 E15.55422
G1 X157.238 Y97.967 E15.58483
G1 X156.95 Y98.842 E15.61547
G1 X156.587 Y99.688 E15.64609
G1 X156.152 Y100.499 E15.6767
G1 X155.648 Y101.27 E15.70734
G1 X154.797 Y102.31 E15.75203
G1 X154.497 Y102.628 E15.76657
G1 X154.153 Y102.979 E15.78292
G1 X133.198 Y123.933 E16.76855
G1 X132.534 Y124.577 E16.79932
G1 X131.846 Y125.189 E16.82994
G1 X131.107 Y125.738 E16.86056
G1 X130.323 Y126.221 E16.89119
G1 X129.501 Y126.634 E16.92179
G1 X128.645 Y126.974 E16.95242
G1 X127.763 Y127.239 E16.98305
G1 X126.862 Y127.426 E17.01366
G1 X125.517 Y127.558 E17.05861
G1 X125.141 Y127.568 E17.07112
G1 X124.602 Y127.574 E17.08905
G1 X94.781 Y127.573 E18.0809
G1 X94.079 Y127.563 E18.10425
G1 X93.16 Y127.51 E18.13487
G1 X92.249 Y127.377 E18.16549
G1 X91.353 Y127.166 E18.1961
G1 X90.478 Y126.878 E18.22674
G1 X89.632 Y126.515 E18.25736
G1 X88.821 Y126.08 E18.28797
G1 X88.05 Y125.576 E18.31861
G1 X87.021 Y124.735 E18.36281
G1 X86.869 Y124.594 E18.3697
G1 X86.661 Y124.396 E18.37926
G1 X86.388 Y124.128 E18.39198
G1 X65.332 Y103.073 E19.38237
G1 X64.737 Y102.459 E19.4108
G1 X64.126 Y101.77 E19.44143
G1 X63.577 Y101.031 E19.47205
G1 X63.095 Y100.247 E19.50266
G1 X62.682 Y99.424 E19.53329
G1 X62.343 Y98.568 E19.56391
G1 X62.079 Y97.686 E19.59453
G1 X61.892 Y96.784 E19.62517
G1 X61.762 Y95.448 E19.66982
G1 X61.752 Y95.072 E19.68233
G1 X61.746 Y94.533 E19.70025
G1 X61.747 Y64.709 E20.6922
G1 X61.757 Y64.007 E20.71555
G1 X61.81 Y63.088 E20.74617
G1 X61.943 Y62.177 E20.77679
G1 X62.154 Y61.281 E20.80741
G1 X62.442 Y60.406 E20.83805
G1 X62.805 Y59.56 E20.86867
G1 X63.24 Y58.749 E20.89928
G1 X63.744 Y57.978 E20.92991
G1 X64.585 Y56.949 E20.97411
G0 F6000 X64.878 Y57.221
G1 F1200 X65.019 Y57.069 E20.98101
G1 X65.206 Y56.873 E20.99002
G1 X65.465 Y56.609 E21.00232
G1 X86.652 Y35.423 E21.99887
G1 X87.139 Y34.952 E22.0214
G1 X87.815 Y34.354 E22.05142
G1 X88.542 Y33.817 E22.08148
G1 X89.313 Y33.347 E22.11151
G1 X90.123 Y32.947 E22.14156
G1 X90.965 Y32.621 E22.17159
G1 X91.832 Y32.37 E22.20161
G1 X92.719 Y32.197 E22.23167
G1 X93.886 Y32.09 E22.27065
G1 X94.253 Y32.08 E22.28286
G1 X94.787 Y32.074 E22.30062
G1 X124.459 Y32.074 E23.28752
G1 X125.306 Y32.085 E23.31569
G1 X126.208 Y32.138 E23.34574
G1 X127.101 Y32.27 E23.37577
G1 X127.979 Y32.481 E23.4058
G1 X128.835 Y32.769 E23.43584
G1 X129.663 Y33.131 E23.46589
G1 X130.455 Y33.565 E23.49593
G1 X131.205 Y34.068 E23.52597
G1 X132.108 Y34.816 E23.56497
G1 X132.415 Y35.105 E23.57899
G1 X132.754 Y35.437 E23.59477
G1 X153.835 Y56.519 E24.58638
G1 X154.351 Y57.05 E24.61101
G1 X154.951 Y57.724 E24.64102
G1 X155.489 Y58.45 E24.67108
G1 X155.961 Y59.22 E24.70111
G1 X156.363 Y60.029 E24.73116
G1 X156.691 Y60.87 E24.76118
G1 X156.944 Y61.737 E24.79122
G1 X157.12 Y62.623 E24.82127
G1 X157.228 Y63.745 E24.85876
G1 X157.234 Y63.893 E24.86369
G1 X157.242 Y64.206 E24.8741
G1 X157.246 Y64.614 E24.88767
G1 X157.245 Y94.533 E25.88278
G1 X157.235 Y95.235 E25.90613
G1 X157.182 Y96.137 E25.93618
G1 X157.05 Y97.03 E25.96621
G1 X156.839 Y97.908 E25.99624
G1 X156.551 Y98.764 E26.02628
G1 X156.189 Y99.592 E26.05634
G1 X155.755 Y100.384 E26.08637
G1 X155.252 Y101.134 E26.11641
G1 X154.504 Y102.037 E26.15541
G1 X154.211 Y102.348 E26.16962
G1 X153.87 Y102.696 E26.18583
G1 X132.8 Y123.763 E27.17682
G1 X132.256 Y124.29 E27.20202
G1 X131.58 Y124.889 E27.23206
G1 X130.854 Y125.426 E27.26209
G1 X130.083 Y125.897 E27.29214
G1 X129.274 Y126.297 E27.32216
G1 X128.432 Y126.625 E27.35221
G1 X127.565 Y126.876 E27.38223
G1 X126.679 Y127.05 E27.41226
G1 X125.503 Y127.158 E27.45154
G1 X125.136 Y127.168 E27.46375
G1 X124.602 Y127.174 E27.48152
G1 X94.787 Y127.173 E28.47317
G1 X94.085 Y127.163 E28.49652
G1 X93.183 Y127.11 E28.52657
G1 X92.29 Y126.978 E28.55659
G1 X91.412 Y126.767 E28.58663
G1 X90.556 Y126.479 E28.61667
G1 X89.728 Y126.117 E28.64672
G1 X88.936 Y125.683 E28.67676
G1 X88.186 Y125.18 E28.7068
G1 X87.293 Y124.442 E28.74533
G1 X87.141 Y124.301 E28.75222
G1 X86.941 Y124.11 E28.76142
G1 X86.671 Y123.845 E28.774
G1 X65.495 Y102.668 E29.77008
G1 X65.024 Y102.181 E29.79262
G1 X64.426 Y101.505 E29.82264
G1 X63.889 Y100.778 E29.8527
G1 X63.419 Y100.007 E29.88273
G1 X63.019 Y99.197 E29.91278
G1 X62.693 Y98.355 E29.94281
G1 X62.442 Y97.488 E29.97283
G1 X62.269 Y96.601 E30.00288
G1 X62.162 Y95.434 E30.04186
G1 X62.152 Y95.067 E30.05407
G1 X62.146 Y94.533 E30.07184
G1 X62.147 Y64.715 E31.06359
G1 X62.157 Y64.013 E31.08694
G1 X62.21 Y63.111 E31.11699
G1 X62.342 Y62.218 E31.14701
G1 X62.553 Y61.34 E31.17705
G1 X62.841 Y60.484 E31.20709
G1 X63.203 Y59.656 E31.23714
G1 X63.637 Y58.864 E31.26718
G1 X64.14 Y58.114 E31.29722
G1 X64.878 Y57.221 E31.33575
G1 F2400 E30.53575
;MESH:cyton_case(1).stl
G0 F6000 X72 Y63.559
G0 X72.766 Y64.325
G0 X73.52 Y94.61
G0 X94.71 Y115.8
G0 X124.752 Y115.974
;TYPE:WALL-INNER
G1 F2400 E31.33575
G1 F1200 X94.639 Y115.974 E32.33731
G1 X73.346 Y94.681 E33.33887
G1 X73.346 Y64.567 E34.34046
G1 X94.639 Y43.274 E35.34202
G1 X124.752 Y43.274 E36.34358
G1 X146.046 Y64.567 E37.34516
G1 X146.046 Y94.681 E38.34676
G1 X124.752 Y115.974 E39.34834
G0 F6000 X124.918 Y116.374
G1 F1200 X94.473 Y116.374 E40.36095
G1 X72.946 Y94.847 E41.37351
G1 X72.946 Y64.401 E42.38615
G1 X94.473 Y42.874 E43.39871
G1 X124.918 Y42.874 E44.41132
G1 X146.446 Y64.401 E45.4239
G1 X146.446 Y94.847 E46.43654
G1 X124.918 Y116.374 E47.44913
G0 F6000 X125.084 Y116.774
;TYPE:WALL-OUTER
G1 F1200 X94.307 Y116.774 E48.47278
G1 X72.546 Y95.013 E49.49635
G1 X72.546 Y64.235 E50.52003
G1 X94.307 Y42.474 E51.5436
G1 X125.084 Y42.474 E52.56725
G1 X146.846 Y64.235 E53.59084
G1 X146.846 Y95.013 E54.61452
G1 X125.084 Y116.774 E55.63811
G0 F6000 X124.916 Y116.368
G0 X124.592 Y115.584
;TYPE:SKIN
G1 F1200 X94.799 Y115.584 E56.62903
G1 X73.736 Y94.521 E57.61977
G1 X73.736 Y64.727 E58.61073
G1 X94.799 Y43.664 E59.60146
G1 X124.592 Y43.664 E60.59238
G1 X145.656 Y64.727 E61.58315
G1 X145.656 Y94.521 E62.5741
G1 X124.592 Y115.584 E63.56486
G1 F2400 E62.76486
G0 F6000 X124.788 Y115.782
G0 X95.059 Y115.864
G0 X95.059 Y115.423
G1 F2400 E63.56486
G1 F1200 X73.895 Y94.26 E64.56033
G0 F6000 X73.895 Y93.694
G1 F1200 X95.624 Y115.423 E65.58239
G0 F6000 X96.19 Y115.423
G1 F1200 X73.895 Y93.128 E66.63108
G0 F6000 X73.895 Y92.563
G1 F1200 X96.756 Y115.423 E67.70637
G0 F6000 X97.321 Y115.423
G1 F1200 X73.895 Y91.997 E68.80826
G0 F6000 X73.895 Y91.431
G1 F1200 X97.887 Y115.423 E69.93677
G0 F6000 X98.453 Y115.423
G1 F1200 X73.895 Y90.866 E71.09188
G0 F6000 X73.895 Y90.3
G1 F1200 X99.018 Y115.423 E72.27358
G0 F6000 X99.584 Y115.423
G1 F1200 X73.895 Y89.734 E73.48192
G0 F6000 X73.895 Y89.168
G1 F1200 X100.15 Y115.423 E74.71687
G0 F6000 X100.716 Y115.423
G1 F1200 X73.895 Y88.603 E75.97843
G0 F6000 X73.895 Y88.037
G1 F1200 X101.281 Y115.423 E77.26658
G0 F6000 X101.847 Y115.423
G1 F1200 X73.895 Y87.471 E78.58135
G0 F6000 X73.895 Y86.906
G1 F1200 X102.413 Y115.423 E79.92273
G0 F6000 X102.978 Y115.423
G1 F1200 X73.895 Y86.34 E81.29071
G0 F6000 X73.895 Y85.774
G1 F1200 X103.544 Y115.423 E82.6853
G0 F6000 X104.11 Y115.423
G1 F1200 X73.895 Y85.209 E84.1065
G0 F6000 X73.895 Y84.643
G1 F1200 X104.675 Y115.423 E85.5543
G0 F6000 X105.241 Y115.423
G1 F1200 X73.895 Y84.077 E87.02872
G0 F6000 X73.895 Y83.512
G1 F1200 X105.807 Y115.423 E88.52974
G0 F6000 X106.372 Y115.423
G1 F1200 X73.895 Y82.946 E90.05736
G0 F6000 X73.895 Y82.38
G1 F1200 X106.938 Y115.423 E91.6116
G0 F6000 X107.504 Y115.423
G1 F1200 X73.895 Y81.815 E93.19244
G0 F6000 X73.895 Y81.249
G1 F1200 X108.069 Y115.423 E94.79988
G0 F6000 X108.635 Y115.423
G1 F1200 X73.895 Y80.683 E96.43394
G0 F6000 X73.895 Y80.118
G1 F1200 X109.201 Y115.423 E98.0946
G0 F6000 X109.767 Y115.423
G1 F1200 X73.895 Y79.552 E99.78189
G0 F6000 X73.895 Y78.986
G1 F1200 X110.332 Y115.423 E101.49577
G0 F6000 X110.898 Y115.423
G1 F1200 X73.895 Y78.42 E103.23628
G0 F6000 X73.895 Y77.855
G1 F1200 X111.464 Y115.423 E105.00339
G0 F6000 X112.029 Y115.423
G1 F1200 X73.895 Y77.289 E106.79709
G0 F6000 X73.895 Y76.723
G1 F1200 X112.595 Y115.423 E108.61742
G0 F6000 X113.161 Y115.423
G1 F1200 X73.895 Y76.158 E110.46435
G0 F6000 X73.895 Y75.592
G1 F1200 X113.726 Y115.423 E112.33788
G0 F6000 X114.292 Y115.423
G1 F1200 X73.895 Y75.026 E114.23803
G0 F6000 X73.895 Y74.461
G1 F1200 X114.858 Y115.423 E116.16478
G0 F6000 X115.423 Y115.423
G1 F1200 X73.895 Y73.895 E118.11813
G0 F6000 X73.895 Y73.329
G1 F1200 X115.989 Y115.423 E120.09811
G0 F6000 X116.555 Y115.423
G1 F1200 X73.895 Y72.764 E122.10468
G0 F6000 X73.895 Y72.198
G1 F1200 X117.12 Y115.423 E124.13785
G0 F6000 X117.686 Y115.423
G1 F1200 X73.895 Y71.632 E126.19764
G0 F6000 X73.895 Y71.067
G1 F1200 X118.252 Y115.423 E128.28404
G0 F6000 X118.817 Y115.423
G1 F1200 X73.895 Y70.501 E130.39703
G0 F6000 X73.895 Y69.935
G1 F1200 X119.383 Y115.423 E132.53665
G0 F6000 X119.949 Y115.423
G1 F1200 X73.895 Y69.37 E134.70286
G0 F6000 X73.895 Y68.804
G1 F1200 X120.515 Y115.423 E136.8957
G0 F6000 X121.08 Y115.423
G1 F1200 X73.895 Y68.238 E139.11514
G0 F6000 X73.895 Y67.672
G1 F1200 X121.646 Y115.423 E141.3612
G0 F6000 X122.212 Y115.423
G1 F1200 X73.895 Y67.107 E143.63386
G0 F6000 X73.895 Y66.541
G1 F1200 X122.777 Y115.423 E145.93312
G0 F6000 X123.343 Y115.423
G1 F1200 X73.895 Y65.975 E148.259
G0 F6000 X73.895 Y65.41
G1 F1200 X123.909 Y115.423 E150.61148
G0 F6000 X124.474 Y115.423
G1 F1200 X73.895 Y64.844 E152.99056
G0 F6000 X74.152 Y64.535
G1 F1200 X124.783 Y115.166 E155.37209
G0 F6000 X125.065 Y114.883
G1 F1200 X74.435 Y64.252 E157.75359
G0 F6000 X74.717 Y63.969
G1 F1200 X125.348 Y114.6 E160.13512
G0 F6000 X125.631 Y114.317
G1 F1200 X75 Y63.686 E162.51665
G0 F6000 X75.283 Y63.404
G1 F1200 X125.914 Y114.035 E164.89817
G0 F6000 X126.197 Y113.752
G1 F1200 X75.566 Y63.121 E167.2797
G0 F6000 X75.849 Y62.838
G1 F1200 X126.48 Y113.469 E169.66123
G0 F6000 X126.763 Y113.186
G1 F1200 X76.132 Y62.555 E172.04276
G0 F6000 X76.414 Y62.272
G1 F1200 X127.045 Y112.903 E174.42428
G0 F6000 X127.328 Y112.62
G1 F1200 X76.697 Y61.989 E176.80581
G0 F6000 X76.98 Y61.707
G1 F1200 X127.611 Y112.338 E179.18734
G0 F6000 X127.894 Y112.055
G1 F1200 X77.263 Y61.424 E181.56886
G0 F6000 X77.546 Y61.141
G1 F1200 X128.177 Y111.772 E183.95039
G0 F6000 X128.46 Y111.489
G1 F1200 X77.829 Y60.858 E186.33192
G0 F6000 X78.111 Y60.575
G1 F1200 X128.742 Y111.206 E188.71344
G0 F6000 X129.025 Y110.923
G1 F1200 X78.394 Y60.292 E191.09497
G0 F6000 X78.677 Y60.01
G1 F1200 X129.308 Y110.64 E193.47647
G0 F6000 X129.591 Y110.358
G1 F1200 X78.96 Y59.727 E195.858
G0 F6000 X79.243 Y59.444
G1 F1200 X129.874 Y110.075 E198.23953
G0 F6000 X130.157 Y109.792
G1 F1200 X79.526 Y59.161 E200.62106
G0 F6000 X79.809 Y58.878
G1 F1200 X130.439 Y109.509 E203.00256
G0 F6000 X130.722 Y109.226
G1 F1200 X80.091 Y58.595 E205.38409
G0 F6000 X80.374 Y58.312
G1 F1200 X131.005 Y108.943 E207.76561
G0 F6000 X131.288 Y108.661
G1 F1200 X80.657 Y58.03 E210.14714
G0 F6000 X80.94 Y57.747
G1 F1200 X131.571 Y108.378 E212.52867
G0 F6000 X131.854 Y108.095
G1 F1200 X81.223 Y57.464 E214.91019
G0 F6000 X81.506 Y57.181
